X:1829
T:Polska efter Per Myhr
R:polska 
N:Förslag till stråkföring: Lennart Sohlman
M:3/4
L:1/8
Q:1/4=150
K:A
{d}c>(d B)(d c)e|(fg) (ae) cA|B>(c dB) cA|BG ((3AcA) E>(d|!
c>d) (Bd) ce|f(g af) {a}ge|b>(g af) ge|[1((3fe^d) {d}[e4e4]:|[2((3fe^d) u{d}([e3e3] u.b)|:!
b(g af) ec|d(e fd) cA|B(c dB) cA|BG ((3AcA) E>(vG|!
(3A)(uGA) (3B(AB) ((3cBc)|((3dcd) ((3efg) a>(vc|(3d)(ef) ec Ac|((3BAG) {G}[A4A4]:|]
(:musicend:)

(:music:)
